src/assets/icons/i_linkedin.svg

<svg height="100" viewBox="0 0 100 100" width="100" xmlns="http://www.w3.org/2000/svg" xmlns:xlink="http://www.w3.org/1999/xlink"><clipPath id="a"><path d="m0 0h100v100h-100z"/></clipPath><g clip-path="url(#a)"><path d="m67.083 0h-64.166a2.756 2.756 0 0 0 -2.917 2.917v64.166a2.756 2.756 0 0 0 2.917 2.917h64.166a2.756 2.756 0 0 0 2.917-2.917v-64.166a2.756 2.756 0 0 0 -2.917-2.917zm-46.375 59.792h-10.208v-33.542h10.5v33.542zm-5.25-38.208a6.125 6.125 0 1 1 6.125-6.125 5.981 5.981 0 0 1 -6.125 6.124zm44.334 38.208h-10.5v-16.334c0-3.792 0-8.75-5.25-8.75-5.542 0-6.125 4.083-6.125 8.458v16.626h-10.5v-33.542h9.917v4.667c1.458-2.625 4.667-5.25 9.917-5.25 10.5 0 12.542 7 12.542 16.042z" transform="translate(14.553 15)"/></g></svg>

<svg xmlns="http://www.w3.org/2000/svg" xmlns:xlink="http://www.w3.org/1999/xlink" width="100" height="100" viewBox="0 0 100 100"><defs><clipPath id="b"><rect width="100" height="100"/></clipPath></defs><g id="a" clip-path="url(#b)"><g transform="translate(14.553 15)"><path d="M67.083,0H2.917A2.756,2.756,0,0,0,0,2.917V67.083A2.756,2.756,0,0,0,2.917,70H67.083A2.756,2.756,0,0,0,70,67.083V2.917A2.756,2.756,0,0,0,67.083,0ZM20.708,59.792H10.5V26.25H21V59.792Zm-5.25-38.208a6.125,6.125,0,1,1,6.125-6.125A5.981,5.981,0,0,1,15.458,21.583ZM59.792,59.792h-10.5V43.458c0-3.792,0-8.75-5.25-8.75-5.542,0-6.125,4.083-6.125,8.458V59.792h-10.5V26.25h9.917v4.667h0c1.458-2.625,4.667-5.25,9.917-5.25,10.5,0,12.542,7,12.542,16.042Z"/></g></g></svg>
